assets/img/footer/taslogo.svg

<svg xmlns="http://www.w3.org/2000/svg" id="a" data-name="Layer 1" viewBox="0 0 200 41.6" width="200px" height="43px">
  <title>Discover Tasmania</title> 
  <path d="M15.58,.29H0V3.75H5.84V20.79h3.9V3.75h5.84V.29Zm21.69,20.5h4.16L34.09,.29h-4.69l-7.38,20.5h4.16l1.68-4.95h7.73l1.68,4.95Zm-8.35-8.14l2.69-7.91h.24l2.69,7.91h-5.61Zm36.18,2.52c0-4.28-3.78-5.65-5.73-6.24l-1.03-.32c-1.74-.53-3.54-1.11-3.54-2.87,0-1.49,1.27-2.46,3.1-2.46,1.98,0,3.01,1.14,3.19,2.75h3.84c-.12-3.48-2.8-6.03-7.05-6.03-3.98,0-6.99,2.26-6.99,5.92,0,3.4,2.66,4.95,5.19,5.71l1.18,.35c1.89,.56,3.93,1.23,3.93,3.31,0,1.79-1.48,2.52-3.25,2.52-2.36,0-3.69-1.23-3.87-3.28h-3.84c.15,3.92,2.77,6.56,7.7,6.56,3.81,0,7.17-1.9,7.17-5.92h0ZM98.54,.29h-4.75l-6.26,14.06h-.24L81.01,.29h-4.78V20.79h3.81V7.17h.24l5.16,11.27h3.93l5.13-11.27h.24v13.62h3.81V.29Zm25.11,20.5h4.16L120.47,.29h-4.69l-7.38,20.5h4.16l1.68-4.95h7.73l1.68,4.95Zm-8.35-8.14l2.69-7.91h.24l2.69,7.91h-5.61ZM151.22,.29V14.08h-.24L141.69,.29h-3.98V20.79h3.81V7.09h.24l9.3,13.7h3.98V.29h-3.81Zm15.61,20.5h3.9V.29h-3.9V20.79Zm29.01,0h4.16L192.65,.29h-4.69l-7.38,20.5h4.16l1.68-4.95h7.73l1.68,4.95Zm-8.35-8.14l2.69-7.91h.24l2.69,7.91h-5.61ZM53.89,41.6c-2.33,0-3.74-1.63-3.74-3.85s1.5-3.91,3.74-3.91c1.72,0,3.09,.91,3.35,2.58h-1.54c-.24-.78-.88-1.26-1.8-1.26-1.36,0-2.27,1.13-2.27,2.6s.98,2.53,2.27,2.53c.99,0,1.68-.48,1.92-1.22h1.54c-.25,1.62-1.71,2.53-3.47,2.53m12.8-3.88c0-1.47-1.03-2.57-2.42-2.57s-2.42,1.1-2.42,2.57,1.03,2.57,2.43,2.57,2.41-1.1,2.41-2.57m-6.31,0c0-2.21,1.64-3.88,3.89-3.88s3.89,1.67,3.89,3.88-1.63,3.88-3.89,3.88-3.89-1.66-3.89-3.88m19.52,3.77h-1.4v-5.01h-.09l-1.89,4.15h-1.45l-1.9-4.15h-.09v5.01h-1.4v-7.55h1.76l2.31,5.17h.09l2.3-5.17h1.75v7.55Zm9.05-1.24v1.24h-5.2v-7.55h5.1v1.24h-3.69v1.88h3.18v1.21h-3.18v1.98h3.8Zm13.43-2.58c0-1.46-.7-2.46-2.29-2.46h-1.17v5h1.17c1.6,0,2.29-1.08,2.29-2.54m1.47,.04c0,2.31-1.38,3.77-3.7,3.77h-2.66v-7.55h2.66c2.32,0,3.7,1.43,3.7,3.77m9.52,0c0-1.47-1.03-2.57-2.42-2.57s-2.42,1.1-2.42,2.57,1.03,2.57,2.43,2.57,2.41-1.1,2.41-2.57m-6.31,0c0-2.21,1.64-3.88,3.89-3.88s3.89,1.67,3.89,3.88-1.63,3.88-3.89,3.88-3.89-1.66-3.89-3.88m20.13-3.77l-1.65,7.55h-1.59l-1.5-5.18h-.09l-1.48,5.18h-1.59l-1.66-7.55h1.39l1.12,5.45h.09l1.42-4.92h1.52l1.4,4.92h.09l1.14-5.45h1.38Zm9.62,0v7.55h-1.47l-3.42-5.04h-.09v5.04h-1.4v-7.55h1.47l3.42,5.08h.09v-5.08h1.4Zm10.3,1.3v2.01h3.19v1.24h-3.19v3h-1.43v-7.55h5.12v1.3h-3.68Zm12.89,2.47c0-1.47-1.03-2.57-2.42-2.57s-2.42,1.1-2.42,2.57,1.03,2.57,2.43,2.57,2.41-1.1,2.41-2.57m-6.31,0c0-2.21,1.64-3.88,3.89-3.88s3.89,1.67,3.89,3.88-1.63,3.88-3.89,3.88-3.89-1.66-3.89-3.88m12.7-.38h1.44c.74,0,1.18-.46,1.18-1.1,0-.67-.45-1.09-1.18-1.09h-1.44v2.19Zm2.82,4.15l-1.59-2.94h-1.24v2.94h-1.4v-7.55h3.01c1.52,0,2.46,.89,2.46,2.22,0,1.02-.56,1.78-1.47,2.12l1.75,3.2h-1.52Zm14.06-3l-.99-2.91h-.09l-.99,2.91h2.06Zm.39,1.18h-2.85l-.62,1.82h-1.53l2.72-7.55h1.73l2.71,7.55h-1.53l-.62-1.82Zm5.29,1.82h1.43v-7.55h-1.43v7.55Zm6.68-4.15h1.44c.74,0,1.18-.46,1.18-1.1,0-.67-.45-1.09-1.18-1.09h-1.44v2.19Zm2.82,4.15l-1.59-2.94h-1.24v2.94h-1.4v-7.55h3.01c1.52,0,2.46,.89,2.46,2.22,0,1.02-.56,1.78-1.47,2.12l1.75,3.2h-1.52Z" style="fill: #000000; fill-rule: evenodd;"/>
</svg>

<?xml version="1.0" encoding="UTF-8" standalone="no"?>
<!DOCTYPE svg PUBLIC "-//W3C//DTD SVG 1.1//EN" "http://www.w3.org/Graphics/SVG/1.1/DTD/svg11.dtd">
<svg width="100%" height="100%" viewBox="0 0 200 43" version="1.1" xmlns="http://www.w3.org/2000/svg" xmlns:xlink="http://www.w3.org/1999/xlink" xml:space="preserve" xmlns:serif="http://www.serif.com/" style="fill-rule:evenodd;clip-rule:evenodd;stroke-linejoin:round;stroke-miterlimit:2;">
    <g transform="matrix(0.902292,0,0,0.902292,0,2.73234)">
        <path d="M15.58,0.29L0,0.29L0,3.75L5.84,3.75L5.84,20.79L9.74,20.79L9.74,3.75L15.58,3.75L15.58,0.29ZM37.27,20.79L41.43,20.79L34.09,0.29L29.4,0.29L22.02,20.79L26.18,20.79L27.86,15.84L35.59,15.84L37.27,20.79ZM28.92,12.65L31.61,4.74L31.85,4.74L34.54,12.65L28.92,12.65ZM65.1,15.17C65.1,10.89 61.32,9.52 59.37,8.93L58.34,8.61C56.6,8.08 54.8,7.5 54.8,5.74C54.8,4.25 56.07,3.28 57.9,3.28C59.88,3.28 60.91,4.42 61.09,6.03L64.93,6.03C64.81,2.55 62.13,-0 57.88,-0C53.9,-0 50.89,2.26 50.89,5.92C50.89,9.32 53.55,10.87 56.08,11.63L57.26,11.98C59.15,12.54 61.19,13.21 61.19,15.29C61.19,17.08 59.71,17.81 57.94,17.81C55.58,17.81 54.25,16.58 54.07,14.53L50.23,14.53C50.38,18.45 53,21.09 57.93,21.09C61.74,21.09 65.1,19.19 65.1,15.17ZM98.55,0.29L93.79,0.29L87.53,14.35L87.29,14.35L81.01,0.29L76.23,0.29L76.23,20.79L80.04,20.79L80.04,7.17L80.28,7.17L85.44,18.44L89.37,18.44L94.5,7.17L94.74,7.17L94.74,20.79L98.55,20.79L98.55,0.29ZM123.65,20.79L127.81,20.79L120.47,0.29L115.78,0.29L108.4,20.79L112.56,20.79L114.24,15.84L121.97,15.84L123.65,20.79ZM115.3,12.65L117.99,4.74L118.23,4.74L120.92,12.65L115.3,12.65ZM151.22,0.29L151.22,14.08L150.98,14.08L141.69,0.29L137.71,0.29L137.71,20.79L141.52,20.79L141.52,7.09L141.76,7.09L151.06,20.79L155.04,20.79L155.04,0.29L151.22,0.29ZM166.83,20.79L170.73,20.79L170.73,0.29L166.83,0.29L166.83,20.79ZM195.83,20.79L200,20.79L192.65,0.29L187.96,0.29L180.58,20.79L184.74,20.79L186.42,15.84L194.15,15.84L195.83,20.79ZM187.49,12.65L190.18,4.74L190.42,4.74L193.11,12.65L187.49,12.65ZM53.89,41.6C51.56,41.6 50.15,39.97 50.15,37.75C50.15,35.53 51.65,33.84 53.89,33.84C55.61,33.84 56.98,34.75 57.24,36.42L55.7,36.42C55.46,35.64 54.82,35.16 53.9,35.16C52.54,35.16 51.63,36.29 51.63,37.76C51.63,39.23 52.61,40.29 53.9,40.29C54.89,40.29 55.58,39.81 55.82,39.07L57.36,39.07C57.11,40.69 55.65,41.6 53.89,41.6M66.69,37.72C66.69,36.25 65.66,35.15 64.27,35.15C62.88,35.15 61.85,36.25 61.85,37.72C61.85,39.19 62.88,40.29 64.28,40.29C65.68,40.29 66.69,39.19 66.69,37.72M60.38,37.72C60.38,35.51 62.02,33.84 64.27,33.84C66.52,33.84 68.16,35.51 68.16,37.72C68.16,39.93 66.53,41.6 64.27,41.6C62.01,41.6 60.38,39.94 60.38,37.72M79.9,41.49L78.5,41.49L78.5,36.48L78.41,36.48L76.52,40.63L75.07,40.63L73.17,36.48L73.08,36.48L73.08,41.49L71.68,41.49L71.68,33.94L73.44,33.94L75.75,39.11L75.84,39.11L78.14,33.94L79.89,33.94L79.89,41.49L79.9,41.49ZM88.95,40.25L88.95,41.49L83.75,41.49L83.75,33.94L88.85,33.94L88.85,35.18L85.16,35.18L85.16,37.06L88.34,37.06L88.34,38.27L85.16,38.27L85.16,40.25L88.96,40.25L88.95,40.25ZM102.38,37.67C102.38,36.21 101.68,35.21 100.09,35.21L98.92,35.21L98.92,40.21L100.09,40.21C101.69,40.21 102.38,39.13 102.38,37.67M103.85,37.71C103.85,40.02 102.47,41.48 100.15,41.48L97.49,41.48L97.49,33.93L100.15,33.93C102.47,33.93 103.85,35.36 103.85,37.7M113.37,37.7C113.37,36.23 112.34,35.13 110.95,35.13C109.56,35.13 108.53,36.23 108.53,37.7C108.53,39.17 109.56,40.27 110.96,40.27C112.36,40.27 113.37,39.17 113.37,37.7M107.06,37.7C107.06,35.49 108.7,33.82 110.95,33.82C113.2,33.82 114.84,35.49 114.84,37.7C114.84,39.91 113.21,41.58 110.95,41.58C108.69,41.58 107.06,39.92 107.06,37.7M127.19,33.93L125.54,41.48L123.95,41.48L122.45,36.3L122.36,36.3L120.88,41.48L119.29,41.48L117.63,33.93L119.02,33.93L120.14,39.38L120.23,39.38L121.65,34.46L123.17,34.46L124.57,39.38L124.66,39.38L125.8,33.93L127.19,33.93ZM136.81,33.93L136.81,41.48L135.34,41.48L131.92,36.44L131.83,36.44L131.83,41.48L130.43,41.48L130.43,33.93L131.9,33.93L135.32,39.01L135.41,39.01L135.41,33.93L136.81,33.93ZM147.11,35.23L147.11,37.24L150.3,37.24L150.3,38.48L147.11,38.48L147.11,41.48L145.68,41.48L145.68,33.93L150.8,33.93L150.8,35.23L147.11,35.23ZM160,37.7C160,36.23 158.97,35.13 157.58,35.13C156.19,35.13 155.16,36.23 155.16,37.7C155.16,39.17 156.19,40.27 157.59,40.27C158.99,40.27 160,39.17 160,37.7M153.69,37.7C153.69,35.49 155.33,33.82 157.58,33.82C159.83,33.82 161.47,35.49 161.47,37.7C161.47,39.91 159.84,41.58 157.58,41.58C155.32,41.58 153.69,39.92 153.69,37.7M166.39,37.32L167.83,37.32C168.57,37.32 169.01,36.86 169.01,36.22C169.01,35.55 168.56,35.13 167.83,35.13L166.39,35.13L166.39,37.32ZM169.21,41.47L167.62,38.53L166.38,38.53L166.38,41.47L164.98,41.47L164.98,33.92L167.99,33.92C169.51,33.92 170.45,34.81 170.45,36.14C170.45,37.16 169.89,37.92 168.98,38.26L170.73,41.46L169.21,41.46L169.21,41.47ZM183.27,38.47L182.28,35.56L182.19,35.56L181.2,38.47L183.27,38.47ZM183.67,39.65L180.81,39.65L180.19,41.47L178.66,41.47L181.38,33.92L183.11,33.92L185.82,41.47L184.29,41.47L183.67,39.65ZM188.95,41.47L190.38,41.47L190.38,33.92L188.95,33.92L188.95,41.47ZM195.63,37.32L197.07,37.32C197.81,37.32 198.25,36.86 198.25,36.22C198.25,35.55 197.8,35.13 197.07,35.13L195.63,35.13L195.63,37.32ZM198.45,41.47L196.86,38.53L195.62,38.53L195.62,41.47L194.22,41.47L194.22,33.92L197.23,33.92C198.75,33.92 199.69,34.81 199.69,36.14C199.69,37.16 199.13,37.92 198.22,38.26L199.97,41.46L198.45,41.46L198.45,41.47Z"/>
    </g>
</svg>
